assets/icons/wrench.svg

<?xml version="1.0" encoding="UTF-8" standalone="no"?>
<svg viewBox="0 0 24 24" height="24" id="svg7384" version="1.1" width="24" sodipodi:docname="wrench.svg" inkscape:version="1.1.2 (08b2f3d93c, 2022-04-05)"
   xmlns:inkscape="http://www.inkscape.org/namespaces/inkscape"
   xmlns:sodipodi="http://sodipodi.sourceforge.net/DTD/sodipodi-0.dtd"
   xmlns="http://www.w3.org/2000/svg"
   xmlns:svg="http://www.w3.org/2000/svg"
   xmlns:rdf="http://www.w3.org/1999/02/22-rdf-syntax-ns#"
   xmlns:cc="http://creativecommons.org/ns#"
   xmlns:dc="http://purl.org/dc/elements/1.1/">
   <sodipodi:namedview id="namedview21" pagecolor="#ffffff" bordercolor="#666666" borderopacity="1.0" inkscape:pageshadow="2" inkscape:pageopacity="0.0" inkscape:pagecheckerboard="0" showgrid="true" inkscape:zoom="4" inkscape:cx="23.375" inkscape:cy="14.25" inkscape:window-width="1920" inkscape:window-height="1043" inkscape:window-x="1920" inkscape:window-y="0" inkscape:window-maximized="1" inkscape:current-layer="svg7384">
      <inkscape:grid type="xygrid" id="grid23" />
   </sodipodi:namedview>
   <metadata id="metadata20854">
      <rdf:RDF>
         <cc:Work rdf:about="">
            <dc:format>image/svg+xml</dc:format>
            <dc:type rdf:resource="http://purl.org/dc/dcmitype/StillImage" />
         </cc:Work>
      </rdf:RDF>
   </metadata>
   <defs id="defs7386">
      <linearGradient id="linearGradient5606" inkscape:swatch="solid">
         <stop id="stop5608" offset="0" style="stop-color:#000000;stop-opacity:1;" />
      </linearGradient>
      <linearGradient id="linearGradient4526" inkscape:swatch="solid">
         <stop id="stop4528" offset="0" style="stop-color:#ffffff;stop-opacity:1;" />
      </linearGradient>
      <linearGradient id="linearGradient3600-4" inkscape:swatch="gradient">
         <stop id="stop3602-7" offset="0" style="stop-color:#f4f4f4;stop-opacity:1" />
         <stop id="stop3604-6" offset="1" style="stop-color:#dbdbdb;stop-opacity:1" />
      </linearGradient>
   </defs>
   <path id="path3908" style="color:#000000;font-style:normal;font-variant:normal;font-weight:normal;font-stretch:normal;font-size:medium;line-height:normal;font-family:Sans;-inkscape-font-specification:Sans;text-indent:0;text-align:start;text-decoration:none;text-decoration-line:none;letter-spacing:normal;word-spacing:normal;text-transform:none;writing-mode:lr-tb;direction:ltr;text-anchor:start;display:inline;overflow:visible;visibility:visible;fill:#808080;fill-opacity:1;fill-rule:nonzero;stroke:none;stroke-width:3.74424;marker:none;enable-background:accumulate" d="M 17.560547 2.1132812 C 15.171384 2.1132813 13.234375 4.0451219 13.234375 6.4277344 C 13.234375 6.9227278 13.347739 7.4009376 13.501953 7.84375 L 7.8652344 13.476562 C 7.4190969 13.321438 6.9347094 13.207031 6.4355469 13.207031 C 4.0463844 13.207031 2.109375 15.138884 2.109375 17.521484 C 2.109375 17.976734 2.2107344 18.418102 2.3417969 18.830078 L 4.7753906 16.404297 C 5.0174781 16.162859 5.348125 16.017578 5.6640625 16.017578 C 5.9800125 16.017578 6.3106344 16.162859 6.5527344 16.404297 L 7.4023438 17.251953 C 7.8865312 17.734828 7.8865312 18.540575 7.4023438 19.023438 L 4.890625 21.527344 C 5.3686 21.708744 5.8937219 21.833984 6.4355469 21.833984 C 8.8247094 21.833984 10.761719 19.904097 10.761719 17.521484 C 10.761719 17.023696 10.647737 16.540654 10.492188 16.095703 L 14.654297 11.935547 C 14.657516 11.935577 14.660844 11.935506 14.664062 11.935547 L 16.130859 10.472656 C 16.576984 10.627781 17.061384 10.742188 17.560547 10.742188 C 19.949709 10.742188 21.886719 8.8103344 21.886719 6.4277344 C 21.886719 5.9299344 21.770784 5.4468406 21.615234 5.0019531 L 19.259766 7.3515625 C 18.775579 7.8344125 18.005659 7.8344125 17.521484 7.3515625 L 16.632812 6.4648438 C 16.148637 5.9819687 16.148637 5.2152594 16.632812 4.7324219 L 18.988281 2.3828125 C 18.542144 2.2276625 18.05971 2.1132812 17.560547 2.1132812 z " />
</svg>

<svg height="24" width="24" xmlns="http://www.w3.org/2000/svg"><path style="color:#000;font-style:normal;font-variant:normal;font-weight:400;font-stretch:normal;font-size:medium;line-height:normal;font-family:Sans;-inkscape-font-specification:Sans;text-indent:0;text-align:start;text-decoration:none;text-decoration-line:none;letter-spacing:normal;word-spacing:normal;text-transform:none;writing-mode:lr-tb;direction:ltr;text-anchor:start;display:inline;overflow:visible;visibility:visible;fill:gray;fill-opacity:1;fill-rule:nonzero;stroke:none;stroke-width:3.74424;marker:none;enable-background:accumulate" d="M17.56 2.113a4.32 4.32 0 0 0-4.326 4.315c0 .495.114.973.268 1.416l-5.637 5.633c-.446-.156-.93-.27-1.43-.27a4.32 4.32 0 0 0-4.326 4.314c0 .456.102.897.233 1.31l2.433-2.427c.242-.241.573-.386.89-.386.315 0 .646.145.888.386l.85.848a1.262 1.262 0 0 1 0 1.771L4.89 21.527a4.379 4.379 0 0 0 1.545.307 4.319 4.319 0 0 0 4.326-4.313c0-.497-.114-.98-.27-1.425l4.162-4.16h.01l1.467-1.463c.446.155.93.27 1.43.27a4.32 4.32 0 0 0 4.326-4.315c0-.498-.116-.981-.272-1.426l-2.355 2.35a1.224 1.224 0 0 1-1.739 0l-.888-.887a1.215 1.215 0 0 1 0-1.733l2.355-2.35c-.446-.154-.928-.269-1.427-.269z"/></svg>
